X: 56
T: Motet cycle Ave mundi domina &mdash; 5. Ave regina caelorum : O salutaris hostia
C: Gaspar van Weerbeke
%%abc-version 2.0
%%abcx-abcm2ps-target-version 5.9.1 (29 Sep 2008)
%%abc-creator hum2abc beta
%%abcx-conversion-date 2022/03/06 13:05:55
%%abc-copyright Copyright 2021, Pavanello, Agnese
%%abc-edited-by Sapp, Craig Stuart
%%abc-edited-by Wissmann, Rolf
%%humdrum-veritas 21445242
%%humdrum-veritas-data 1988932140
%%linebreak <none>
%%barnumbers 0
L: 1/4
M: C|
N: Derived from Gas0301e-Ave_mundi_dominia-Ave_regina_caelorum.krn
%%staves [1 2 3 4]
V: 1 clef=treble
V: 2 clef=treble-8
V: 3 clef=treble-8
V: 4 clef=bass
K: F
[V:1] z8 | 
[V:2] G8 | 
[V:3] z8 | 
[V:4] z8 | 
[V:1] z8 | 
[V:2] D4D4 | 
[V:3] z8 | 
[V:4] z8 | 
[V:1] z8 | 
[V:2] G8 | 
[V:3] z8 | 
[V:4] G,8 | 
[V:1] z8 | 
[V:2] F4F4 | 
[V:3] z8 | 
[V:4] D,4D,4 | 
[V:1] z8 | 
[V:2] G4B4 | 
[V:3] z8 | 
[V:4] G,8 | 
[V:1] z8 | 
[V:2] A4d4- | 
[V:3] z8 | 
[V:4] F,4F,4 | 
[V:1] z8 | 
[V:2] d2c2B2AG | 
[V:3] z8 | 
[V:4] G,6F,E, | 
[V:1] z8 | 
[V:2] F2G2B2A2- | 
[V:3] z8 | 
[V:4] D,2_E,2D,2C,2- | 
[V:1] z8 | 
[V:2] A2G4^F2 | 
[V:3] z8 | 
[V:4] C,2B,,2A,,4 | 
[V:1] G8 | 
[V:2] G4z4 | 
[V:3] z8 | 
[V:4] G,,4z2A,,2 | 
[V:1] D4D4 | 
[V:2] z8 | 
[V:3] z8 | 
[V:4] B,,2C,2D,4 | 
[V:1] G4G4 | 
[V:2] d6e2 | 
[V:3] G8 | 
[V:4] B,,4G,,4 | 
[V:1] F4F4 | 
[V:2] d6d2 | 
[V:3] D4D4 | 
[V:4] z4D,4 | 
[V:1] G4B4 | 
[V:2] d4B4 | 
[V:3] G4G4 | 
[V:4] B,,4G,,4 | 
[V:1] A4d4- | 
[V:2] f2>e2d3c | 
[V:3] F8 | 
[V:4] D,4z4 | 
[V:1] d2c2B2AG | 
[V:2] B4z2d2- | 
[V:3] G4B4 | 
[V:4] z4G,4 | 
[V:1] F2G2B2A2- | 
[V:2] d2d2g2e2 | 
[V:3] A2B2d2c2- | 
[V:4] D,2G,4A,2 | 
[V:1] A2G4^F2 | 
[V:2] f2d4d2 | 
[V:3] c2B2A4 | 
[V:4] F,2G,2D,4 | 
[V:1] G8 | 
[V:2] d6cB | 
[V:3] G8 | 
[V:4] G,,8 | 
[V:1] z8 | 
[V:2] A4d4 | 
[V:3] z8 | 
[V:4] D,6C,B,, | 
[V:1] z8 | 
[V:2] e2f4ed | 
[V:3] z8 | 
[V:4] A,,4D,4 | 
[V:1] z8 | 
[V:2] c2d4cB | 
[V:3] z8 | 
[V:4] E,2F,4E,D, | 
[V:1] z8 | 
[V:2] A2B4d2 | 
[V:3] z8 | 
[V:4] C,2D,4B,,2- | 
[V:1] z4F4 | 
[V:2] c4B4- | 
[V:3] z8 | 
[V:4] B,,2A,,2B,,4- | 
[V:1] B4c2d2- | 
[V:2] B4z4 | 
[V:3] z4z2F2 | 
[V:4] B,,4z4 | 
[V:1] d2cBA2B2- | 
[V:2] z8 | 
[V:3] B4c2d2- | 
[V:4] z8 | 
[V:1] B2AGF2G2- | 
[V:2] z8 | 
[V:3] d2cBA2B2- | 
[V:4] z8 | 
[V:1] G2B2A4 | 
[V:2] d2>e2f4 | 
[V:3] B2G4F2 | 
[V:4] G,,4D,4 | 
[V:1] G2G4^F2 | 
[V:2] e2d2>c2BA | 
[V:3] G2B2A4 | 
[V:4] E,2G,2D,4 | 
[V:1] G4z2G2 | 
[V:2] B4z4 | 
[V:3] G4z4 | 
[V:4] G,,8 | 
[V:1] F2G2D3E | 
[V:2] z8 | 
[V:3] z2G2F2G2 | 
[V:4] z8 | 
[V:1] FGA4B2- | 
[V:2] z8 | 
[V:3] D2>E2F2G2 | 
[V:4] z8 | 
[V:1] B2A4G2 | 
[V:2] f2f2d4 | 
[V:3] A2c2B4 | 
[V:4] F,2F,2G,4 | 
[V:1] A4z4 | 
[V:2] d4z2d2 | 
[V:3] A4z4 | 
[V:4] D,8 | 
[V:1] z8 | 
[V:2] c2d2A2-AB | 
[V:3] z8 | 
[V:4] z2D,2C,2D,2 | 
[V:1] z8 | 
[V:2] cde4f2- | 
[V:3] z8 | 
[V:4] A,,2>B,,2C,2D,2 | 
[V:1] z8 | 
[V:2] f2d4^c2 | 
[V:3] z8 | 
[V:4] F,2G,2E,4 | 
[V:1] z8 | 
[V:2] defge2d2- | 
[V:3] z8 | 
[V:4] D,4C,2F,2 | 
[V:1] z8 | 
[V:2] d2c4=B2 | 
[V:3] z8 | 
[V:4] G,2E,2D,4 | 
[V:1] z8 | 
[V:2] c4z4 | 
[V:3] G4A2c2- | 
[V:4] C,8 | 
[V:1] z8 | 
[V:2] z8 | 
[V:3] c2=B2c4 | 
[V:4] z2G,,2A,,2C,2- | 
[V:1] z8 | 
[V:2] z8 | 
[V:3] d4c2A2 | 
[V:4] C,2=B,,2C,4 | 
[V:1] z8 | 
[V:2] z8 | 
[V:3] B2A4G2- | 
[V:4] D,2C,2D,2B,,2 | 
[V:1] z4G4 | 
[V:2] c4B4 | 
[V:3] G2^F2G4 | 
[V:4] A,,4G,,4 | 
[V:1] F4B4 | 
[V:2] d4g4 | 
[V:3] z4G4 | 
[V:4] z2D,2G,,4 | 
[V:1] A4d4 | 
[V:2] f2a2g2de | 
[V:3] F4B4 | 
[V:4] D,4G,,4 | 
[V:1] c4B4 | 
[V:2] f4d4 | 
[V:3] A4d4 | 
[V:4] F,4G,4 | 
[V:1] A4G2d2- | 
[V:2] z2f2d3e | 
[V:3] c4B4 | 
[V:4] A,2F,2G,4 | 
[V:1] d2c2B2A2- | 
[V:2] f4e2f2- | 
[V:3] A4G2d2- | 
[V:4] D,2F,2G,2F,2 | 
[V:1] A2G4^F2 | 
[V:2] f2d6 | 
[V:3] d2B2A4 | 
[V:4] D,2G,2D,4 | 
[V:1] G8 |]  
[V:2] d8 |]  
[V:3] G8 |]  
[V:4] G,,8 |]  
[V:1] !fermata!F8 [I:setbarnb 53]| 
[V:2] !fermata!d8 | 
[V:3] !fermata!A8 | 
[V:4] !fermata!D,8 | 
[V:1] !fermata!G8 | 
[V:2] !fermata!d8 | 
[V:3] !fermata!B8 | 
[V:4] !fermata!G,,8 | 
[V:1] !fermata!F8 | 
[V:2] !fermata!d8 | 
[V:3] !fermata!A8 | 
[V:4] !fermata!D,8 | 
[V:1] !fermata!B8 | 
[V:2] !fermata!g8 | 
[V:3] !fermata!G8 | 
[V:4] !fermata!_E,8 | 
[V:1] !fermata!B8 | 
[V:2] !fermata!f8 | 
[V:3] !fermata!d8 | 
[V:4] !fermata!B,,8 | 
[V:1] !fermata!A8 | 
[V:2] !fermata!f8 | 
[V:3] !fermata!c8 | 
[V:4] !fermata!F,8 | 
[V:1] !fermata!G8 | 
[V:2] !fermata!d8 | 
[V:3] !fermata!B8 | 
[V:4] !fermata!G,8 | 
[V:1] !fermata!A8 | 
[V:2] !fermata!d8 | 
[V:3] !fermata!A8 | 
[V:4] !fermata!D,8 | 
[V:1] !fermata!F8 | 
[V:2] !fermata!d8 | 
[V:3] !fermata!A8 | 
[V:4] !fermata!D,8 | 
[V:1] !fermata!G8 | 
[V:2] !fermata!d8 | 
[V:3] !fermata!B8 | 
[V:4] !fermata!G,8 | 
[V:1] !fermata!A8 | 
[V:2] !fermata!f8 | 
[V:3] !fermata!A8 | 
[V:4] !fermata!D,8 | 
[V:1] !fermata!B8 | 
[V:2] !fermata!g8 | 
[V:3] !fermata!G8 | 
[V:4] !fermata!G,,8 | 
[V:1] !fermata!A8 | 
[V:2] !fermata!f8 | 
[V:3] !fermata!c8 | 
[V:4] !fermata!F,8 | 
[V:1] !fermata!G8 | 
[V:2] !fermata!d8 | 
[V:3] !fermata!B8 | 
[V:4] !fermata!G,8 | 
[V:1] !fermata!^F8 | 
[V:2] !fermata!d8 | 
[V:3] !fermata!A8 | 
[V:4] !fermata!D,8 | 
[V:1] !fermata!G8 | 
[V:2] !fermata!d8 | 
[V:3] !fermata!G8 | 
[V:4] !fermata!G,,8 | 
[V:1] !fermata!A8 | 
[V:2] !fermata!f8 | 
[V:3] !fermata!c8 | 
[V:4] !fermata!F,8 | 
[V:1] !fermata!B8 | 
[V:2] !fermata!f8 | 
[V:3] !fermata!d8 | 
[V:4] !fermata!B,,8 | 
[V:1] !fermata!A8 | 
[V:2] !fermata!f8 | 
[V:3] !fermata!c8 | 
[V:4] !fermata!F,8 | 
[V:1] !fermata!G8 | 
[V:2] !fermata!c8 | 
[V:3] !fermata!G8 | 
[V:4] !fermata!E,8 | 
[V:1] !fermata!F8 | 
[V:2] !fermata!d8 | 
[V:3] !fermata!A8 | 
[V:4] !fermata!D,8 | 
[V:1] !fermata!G8 | 
[V:2] !fermata!G8 | 
[V:3] !fermata!G8 | 
[V:4] !fermata!_E,8 | 
[V:1] !fermata!G8 | 
[V:2] !fermata!G8 | 
[V:3] !fermata!E8 | 
[V:4] !fermata!C,8 | 
[V:1] !fermata!D8 | 
[V:2] !fermata!B8 | 
[V:3] !fermata!F8 | 
[V:4] !fermata!B,,8 | 
[V:1] !fermata!F8 | 
[V:2] !fermata!A8 | 
[V:3] !fermata!F8 | 
[V:4] !fermata!D,8 | 
[V:1] !fermata!E8 | 
[V:2] !fermata!c8 | 
[V:3] !fermata!G8 | 
[V:4] !fermata!C,8 | 
[V:1] !fermata!F8 | 
[V:2] c4!fermata!f4 | 
[V:3] !fermata!A8 | 
[V:4] !fermata!F,8 | 
[V:1] !fermata!B8 | 
[V:2] !fermata!d8 | 
[V:3] !fermata!B8 | 
[V:4] !fermata!G,8 | 
[V:1] !fermata!A8 | 
[V:2] !fermata!f8 | 
[V:3] !fermata!c8 | 
[V:4] !fermata!F,8 | 
[V:1] !fermata!G8 | 
[V:2] !fermata!c8 | 
[V:3] !fermata!G8 | 
[V:4] !fermata!_E,8 | 
[V:1] !fermata!^F8 | 
[V:2] !fermata!d8 | 
[V:3] !fermata!A8 | 
[V:4] !fermata!D,8 | 
[V:1] !fermata!G8 |]  
[V:2] !fermata![=B8d8] |]  
[V:3] !fermata!G8 |]  
[V:4] !fermata!G,,8 |]  


